!!!SOCIAL_FUNCTION:	klokali songs
!!!PDT:	1939
!!!OTL: No_47_"The_Wolves_Are_Howling".krn
!!!LANG: Non-Tone
!!!LING_GROUP: Wakashan
!!!REG: Pacific Northwest
**kern
*staff1
=1-
*clefF4
*k[f#c#g#d#a#]
*M3/4
2r
8.d#\L
16d#\Jk
=2!|:
4.d#\
8d#\
8.d#\L
16c#\Jk
=3||
*M2/4
8c#\L
16B\Jk
16r
8.c#\L
16d#\Jk
=4
[4d#\
8d#\L]
8c#\J
=5
8d#\L
16d#\L
16d#\JJ
16d#\LL
16c#\JJ
16r
16d#\
=6
8d#\L
8c#\J
8B\
16r
16B\
=7||
*M3/4
8c#\L
16c#\L
16c#\JJ
16c#\LL
16B\
16B\
16A#\JJ
8B\
8r
=8||
*M2/4
8.c#\L
16B\Jk
8B\L
8A#\J
=9
12c#\L
12B\
12A#\J
8.B\L
16B\Jk
=10
12B\L
12G#\
12F#\J
8B\L
8B\J
=11||
*M3/4
8B\L
16B\Jk
16r
4r
8.d#\L
16d#\Jk
=12:|!
*M2/4
8B\L
16B\Jk
16r
4r
==
*-
